X:764
T:Twelfth Street Rag
C:Euday L. Bowman, 1914
S:Colin Hume's website,  colinhume.com  - chords can also be printed below the stave.
Q:1/2=120
M:2/2
L:1/8
K:C
"^Introduction" | "G7"g^fga gz3 | G^FGA Gz3 | GG2G A2^A2 | Bz3 G4 |
[| "C"cBAc BAcB | AcBA cBAz | "G7"cBAc BAcB | A2z2 z4 |\
"G7"cBAc BAcB | AcBA cBAz | "C"cBAc BAcB | Az3 z4 |
"C"cBAc BAcB | AcBA cBAz | "G7"cBAc BAcB | A2z2 z4 |\
"D9"E4 D2z2 | B4 A2z2 | "G7"GG2G A2^A2 | B2G2 A2B2 ||
"C"cBAc BAcB | AcBA cBAz | "G7"cBAc BAcB | A2z2 z4 |\
"G7"cBAc BAcB | AcBA cBAz | "C"cBAc BAcB | Az3 z4 |
"C"c3c- cdc2 | "C7"_B3B- BcB2 | "F"A3A- A_BA2 | "Fm"_A3A- _A_BA2 |\
"C"G2GA- AGEC | "D7"E2ED- "G7"DED2 | "C"C2CD EGAG | cGAc- c2z2 |]

